X: 1
T:Mazurca (a Passetto)
C:Organetto e Tarantelle 3
M:3/4
L:1/8
K:G
Bd Bd|e2Bd Bd|d2 Ac Ac|d2Ac Ac|e2 Bd Bd|\
e2Bd Bd|d2 Ac Ac|f2e2d2|c2B2~A2|G6||\
GB cd eg|f6|e6|f4e2|d6-|d6|\
GB cd eg|f2e2d2|c2B2~A2|G2Bd Bd||\
ed GB cd|dc FA Bc|dc FA Bc|ed GB cd|\
ed GB cd|dc FA Bc|fe dc BA||\
B2B2 c2|d2 c2 ~B2|A2 AB cd|e2e2e2|e2=fe dc|\
d2d2d2|d2 ed cB|A2A2AB|c2 B2 A2|G6||\
GB cd eg|f6|e6|f4e2|d6|\
GB cd eg|fe dc de|fe dc BA|G2 Bd (3GBd||\
ed GB cd|dc FA Bc|dc FA Bc|ed GB cd|\
ed GB cd|dc FA Bc|fe dc BA|G2 (3GBd (3GBd||\
e2  (3GBd (3GBd|d2 (3FAc (3FAc|d2 (3FAc (3FAc|e2  (3GBd (3GBd|\
e2  (3GBd (3GBd|d2 FA (3Bcd|f2 e2 d2|c2 B2 ~A2||\
B2B2 c2|d2 c2 ~B2|A2 AB cd|e2e2e2|e2=fe dc|\
d2d2d2|d2 ed cB|A2A2AB|c2 B2 A2|G6||\
GB cd eg|f6|e2f2e2|d6|GB cd eg|fe de de|fe dc BA|G6||**
